svg/Pictogram/pictograms-aem-0090-cutting-severing_of_fingers_or_hand-fan.svg

<?xml version="1.0" encoding="ISO-8859-1" standalone="yes"?>
<svg height="304.014" width="304.015">
  <metadata>
    <rdf:RDF xmlns:cc="http://web.resource.org/cc/" xmlns:dc="http://purl.org/dc/elements/1.1/" xmlns:rdf="http://www.w3.org/1999/02/22-rdf-syntax-ns#">
      <cc:Work rdf:about="">
        <dc:title></dc:title>
        <dc:description></dc:description>
        <dc:subject>
          <rdf:Bag>
            <rdf:li></rdf:li>
          </rdf:Bag>
        </dc:subject>
        <dc:publisher>
          <cc:Agent rdf:about="http://www.unece.org/trans/danger/publi/ghs/pictograms.html">
            <dc:title>Source: UNECE GHS of Classification and Labeling of Chemicals, Source: AEM Pictorial Database, Source: AEM Pictorial Database, Source: AEM Pictorial Database, Source: AEM Pictorial Database</dc:title>
          </cc:Agent>
        </dc:publisher>
        <dc:creator>
          <cc:Agent>
            <dc:title></dc:title>
          </cc:Agent>
        </dc:creator>
        <dc:rights>
          <cc:Agent>
            <dc:title></dc:title>
          </cc:Agent>
        </dc:rights>
        <dc:date></dc:date>
        <dc:format>image/svg+xml</dc:format>
        <dc:type rdf:resource="http://purl.org/dc/dcmitype/StillImage"/>
        <cc:license rdf:resource="http://en.wikipedia.org/wiki/Public_domain"/>
        <dc:language>en</dc:language>
      </cc:Work>
    </rdf:RDF>
  </metadata>
  <defs><marker id="ArrowEnd" markerHeight="3" markerUnits="strokeWidth" markerWidth="4" orient="auto" refX="0" refY="5" viewBox="0 0 10 10"><path d="M 0 0 L 10 5 L 0 10 z"/></marker><marker id="ArrowStart" markerHeight="3" markerUnits="strokeWidth" markerWidth="4" orient="auto" refX="10" refY="5" viewBox="0 0 10 10"><path d="M 10 0 L 0 5 L 10 10 z"/></marker> </defs>
  <g id="g2958" transform="matrix(1.3532768,0,0,1.3532781,-53.207834,-52.192858)">
    <path d="M 192.741 100.838C 186.48 100.838 181.397 105.92 181.397 112.182C 181.397 118.448 186.48 123.526 192.741 123.526C 199.007 123.526 204.085 118.448 204.085 112.182C 204.085 105.916 199.007 100.838 192.741 100.838" style="stroke:none; fill-rule:evenodd; fill:#000000"/>
    <path d="M 202.058 161.163C 202.159 160.791 202.397 160.479 202.733 160.288C 202.733 160.288 231.952 143.416 231.952 143.416C 232.288 143.221 232.679 143.17 233.05 143.272C 233.421 143.37 233.733 143.608 233.925 143.944C 233.929 143.948 255.679 181.463 255.679 181.463L 256.905 180.756L 256.905 174.01L 238.093 141.534C 237.257 140.092 235.909 139.053 234.296 138.624C 232.683 138.19 230.995 138.413 229.546 139.248L 223.694 142.627L 216.554 130.631C 216.483 130.502 216.452 130.389 216.487 130.323C 216.487 130.323 216.468 130.354 216.444 130.385C 216.444 130.381 216.565 130.221 216.565 130.221L 221.206 123.112C 221.429 122.776 221.761 122.741 221.89 122.741L 221.964 122.745L 234.585 122.745L 234.585 127.584C 234.585 131.034 237.39 133.838 240.843 133.838L 256.921 133.838L 256.921 129.026L 240.843 129.026C 240.046 129.026 239.397 128.377 239.397 127.584L 239.397 93.8424C 239.397 93.0454 240.046 92.3974 240.843 92.3974L 256.921 92.3974L 256.921 87.5844L 240.843 87.5844C 237.39 87.5844 234.585 90.3934 234.585 93.8424L 234.585 100.6L 220.624 100.784C 220.48 100.784 220.366 100.752 220.327 100.69L 220.386 100.834L 220.272 100.573L 216.44 92.9954C 216.257 92.6354 216.39 92.3344 216.456 92.2214L 216.499 92.1594L 222.808 81.2254L 226.999 83.6474C 228.448 84.4834 230.136 84.7064 231.749 84.2724C 233.362 83.8384 234.71 82.8034 235.546 81.3584L 253.702 49.8774L 248.151 49.8774L 231.378 78.9524C 231.187 79.2844 230.874 79.5224 230.503 79.6244C 230.128 79.7214 229.737 79.6704 229.405 79.4794L 200.187 62.6084C 199.495 62.2094 199.261 61.3274 199.655 60.6354C 199.659 60.6314 205.823 49.8894 205.823 49.8894L 200.28 49.8814L 195.483 58.2374C 193.765 61.2174 194.792 65.0494 197.776 66.7764L 203.632 70.1554L 196.812 82.3344C 196.737 82.4634 196.651 82.5454 196.577 82.5454C 196.577 82.5454 196.616 82.5534 196.655 82.5574C 196.651 82.5574 196.452 82.5344 196.452 82.5344L 187.972 82.0654C 187.569 82.0414 187.374 81.7764 187.312 81.6634L 187.276 81.5924L 180.964 70.6664L 185.155 68.2454C 186.601 67.4134 187.636 66.0654 188.069 64.4524C 188.214 63.9134 188.284 63.3624 188.284 62.8194C 188.284 61.7374 188.003 60.6664 187.444 59.7024C 187.444 59.7024 181.905 49.8774 181.905 49.8774L 178.444 49.8934L 176.886 50.7724L 183.265 62.0844C 183.472 62.4444 183.522 62.8314 183.421 63.2024C 183.323 63.5774 183.081 63.8854 182.753 64.0774C 182.749 64.0774 153.53 80.9484 153.53 80.9484C 153.194 81.1394 152.808 81.1944 152.433 81.0924C 152.062 80.9954 151.749 80.7524 151.558 80.4204C 151.554 80.4164 133.886 49.8744 133.886 49.8744L 128.308 49.8934L 147.39 82.8314C 148.226 84.2724 149.573 85.3074 151.19 85.7414C 152.804 86.1744 154.491 85.9524 155.937 85.1164L 161.788 81.7374L 168.929 93.7334C 168.999 93.8624 169.03 93.9754 168.991 94.0414L 169.089 93.9164L 168.917 94.1434L 164.272 101.252C 164.054 101.592 163.726 101.627 163.593 101.627L 163.519 101.62L 150.897 101.62L 150.897 96.7844C 150.897 93.3344 148.093 90.5264 144.644 90.5264L 80.0194 90.5264C 76.5694 90.5264 73.7654 93.3344 73.7654 96.7844L 73.7654 130.526C 73.7654 133.971 76.5694 136.78 80.0194 136.78L 144.644 136.78C 148.093 136.78 150.897 133.971 150.897 130.526L 150.897 123.764L 164.854 123.581C 165.003 123.581 165.116 123.612 165.155 123.674C 165.155 123.674 165.14 123.639 165.124 123.604C 165.124 123.608 165.206 123.791 165.206 123.791L 169.038 131.37C 169.108 131.502 169.132 131.627 169.132 131.741C 169.132 131.928 169.065 132.073 169.022 132.143L 168.98 132.209L 162.671 143.135L 158.48 140.717C 155.491 138.991 151.659 140.018 149.933 143.006L 117.62 198.971C 116.784 200.416 116.565 202.104 116.995 203.717C 117.429 205.331 118.464 206.682 119.909 207.518L 149.132 224.385C 150.577 225.221 152.265 225.444 153.882 225.01C 155.495 224.581 156.843 223.545 157.679 222.096L 153.511 219.694C 153.315 220.026 153.007 220.264 152.636 220.366C 152.261 220.463 151.87 220.413 151.538 220.217L 122.319 203.35C 121.983 203.159 121.745 202.846 121.644 202.471C 121.546 202.1 121.597 201.709 121.788 201.377C 121.788 201.377 154.101 145.413 154.101 145.413C 154.499 144.721 155.382 144.487 156.069 144.881L 185.292 161.756C 185.628 161.948 185.866 162.26 185.968 162.631C 186.065 163.002 186.015 163.393 185.819 163.725L 189.987 166.135C 190.823 164.686 191.046 163.002 190.612 161.385C 190.183 159.772 189.144 158.424 187.698 157.588L 181.843 154.206L 188.667 142.026C 188.741 141.901 188.823 141.819 188.897 141.815C 188.897 141.815 188.858 141.811 188.819 141.807C 188.823 141.807 189.026 141.831 189.026 141.831L 197.507 142.299C 197.909 142.319 198.101 142.588 198.167 142.702L 198.202 142.768L 204.511 153.698L 200.323 156.12C 198.874 156.952 197.839 158.303 197.405 159.916C 196.972 161.53 197.194 163.217 198.03 164.663L 204.937 176.624L 209.104 174.217L 202.198 162.256C 202.007 161.924 201.952 161.534 202.054 161.163L 202.058 161.163zM 146.089 130.526C 146.089 131.319 145.44 131.967 144.644 131.967L 80.0224 131.967C 79.2264 131.967 78.5774 131.319 78.5774 130.526L 78.5774 96.7844C 78.5774 95.9874 79.2264 95.3384 80.0224 95.3384L 144.644 95.3384C 145.44 95.3384 146.089 95.9874 146.089 96.7844L 146.089 130.526zM 202.499 140.6C 201.995 139.514 200.429 137.635 197.769 137.495L 189.296 137.03L 189.577 137.061C 188.37 136.846 185.94 137.155 184.491 139.643C 184.476 139.67 179.894 147.846 177.679 151.803L 166.843 145.545L 173.124 134.663L 173.011 134.842C 173.698 133.862 174.538 131.569 173.335 129.194L 169.503 121.624L 169.616 121.885C 169.194 120.733 167.714 118.776 164.835 118.772C 164.804 118.772 155.433 118.893 150.901 118.952L 150.901 106.436L 163.464 106.436L 163.253 106.424C 164.444 106.53 166.854 106.116 168.308 103.885L 172.948 96.7804L 172.78 97.0064C 173.569 96.0694 174.519 93.8074 173.085 91.3114C 173.069 91.2844 168.276 83.2294 165.96 79.3314L 176.8 73.0734L 183.081 83.9564L 182.983 83.7684C 183.491 84.8544 185.054 86.7334 187.714 86.8744L 196.187 87.3424L 195.905 87.3114C 197.112 87.5224 199.542 87.2174 200.991 84.7254C 201.007 84.6984 205.589 76.5224 207.804 72.5654L 218.644 78.8234L 212.358 89.7064L 212.476 89.5304C 211.784 90.5064 210.944 92.7994 212.147 95.1744L 215.98 102.748L 215.866 102.487C 216.288 103.639 217.769 105.592 220.651 105.6C 220.679 105.6 230.054 105.479 234.585 105.42L 234.585 117.936L 222.019 117.936L 222.23 117.944C 221.038 117.838 218.632 118.256 217.179 120.487L 212.534 127.592L 212.702 127.366C 211.917 128.303 210.968 130.561 212.397 133.061C 212.413 133.084 217.206 141.143 219.526 145.041L 208.687 151.299L 202.401 140.416L 202.499 140.604" style="stroke:none; fill-rule:evenodd; fill:#000000"/>
    <path d="M 256.905 207.288L 236.511 218.737C 236.151 218.944 235.765 218.995 235.39 218.897C 235.019 218.795 234.706 218.557 234.515 218.221L 219.772 192.69L 215.604 195.092L 230.347 220.627C 232.069 223.616 235.905 224.643 238.894 222.92C 238.874 222.928 256.905 212.811 256.905 212.811L 256.905 207.288" style="stroke:none; fill-rule:evenodd; fill:#000000"/>
    <path d="M 160.925 176.616L 184.452 164.717L 221.616 187.577C 221.616 187.577 211.726 200.944 200.897 194.53C 190.069 188.112 183.519 184.37 183.519 184.37L 168.815 191.456L 160.929 176.616" style="stroke:none; fill-rule:evenodd; fill:#000000"/>
    <path d="M 164.292 208.299L 164.062 192.971L 188.331 191.053L 217.253 224.198C 217.253 224.198 204.64 233.963 195.44 222.987C 187.354 213.342 182.218 208.112 182.218 208.112L 166.417 209.737L 164.292 208.299" style="stroke:none; fill-rule:evenodd; fill:#000000"/>
    <path d="M 158.386 206.159L 178.44 217.522C 178.44 217.522 180.577 218.725 180.71 221.131C 180.847 223.538 183.386 253.881 183.386 253.881C 183.386 253.881 167.745 256.557 165.339 240.784L 164.401 228.081L 150.366 219.928L 158.386 206.159" style="stroke:none; fill-rule:evenodd; fill:#000000"/>
    <path d="M 49.9604 118.463L 134.058 165.92L 114.808 200.413C 114.808 200.413 113.069 206.428 118.683 209.37L 109.19 214.315L 111.999 221.534L 120.558 226.077C 120.558 226.077 133.12 235.834 125.636 248.405L 93.2844 231.291L 74.4374 188.514L 49.9724 174.745L 49.9604 118.467" style="stroke:none; fill-rule:evenodd; fill:#000000"/>
    <path d="M 29.6204 265.393L 2.62042 265.393" style="stroke:#000000; stroke-width:0.5; fill:none"/>
    <path d="M 38.6204 274.393L 38.6204 301.393" style="stroke:#000000; stroke-width:0.5; fill:none"/>
    <path d="M 29.6204 38.6204L 2.62042 38.6204" style="stroke:#000000; stroke-width:0.5; fill:none"/>
    <path d="M 38.6204 29.6204L 38.6204 2.62042" style="stroke:#000000; stroke-width:0.5; fill:none"/>
    <path d="M 274.394 38.6204L 301.394 38.6204" style="stroke:#000000; stroke-width:0.5; fill:none"/>
    <path d="M 265.394 29.6204L 265.394 2.62042" style="stroke:#000000; stroke-width:0.5; fill:none"/>
    <path d="M 274.394 265.393L 301.394 265.393" style="stroke:#000000; stroke-width:0.5; fill:none"/>
    <path d="M 265.394 274.393L 265.394 301.393" style="stroke:#000000; stroke-width:0.5; fill:none"/>
  </g>
</svg>

<svg viewBox="0 0 304.01 304.01"><g transform="matrix(1.35328 0 0 1.35328-53.21-52.19)" fill-rule="evenodd"><path d="m192.74 100.84c-6.261 0-11.344 5.082-11.344 11.344 0 6.266 5.083 11.344 11.344 11.344 6.266 0 11.344-5.078 11.344-11.344 0-6.266-5.078-11.344-11.344-11.344"/><path d="m202.06 161.16c.101-.372.339-.684.675-.875 0 0 29.22-16.872 29.22-16.872.336-.195.727-.246 1.098-.144.371.098.683.336.875.672.004.004 21.754 37.519 21.754 37.519l1.226-.707v-6.746l-18.812-32.476c-.836-1.442-2.184-2.481-3.797-2.91-1.613-.434-3.301-.211-4.75.624l-5.852 3.379-7.14-11.996c-.071-.129-.102-.242-.067-.308 0 0-.019.031-.043.062 0-.004.121-.164.121-.164l4.641-7.109c.223-.336.555-.371.684-.371l.074.004h12.621v4.839c0 3.45 2.805 6.254 6.258 6.254h16.08v-4.812h-16.08c-.797 0-1.446-.649-1.446-1.442v-33.742c0-.797.649-1.445 1.446-1.445h16.08v-4.813h-16.08c-3.453 0-6.258 2.809-6.258 6.258v6.758l-13.961.184c-.144 0-.258-.032-.297-.094l.059.144-.114-.261-3.832-7.578c-.183-.36-.05-.661.016-.774l.043-.062 6.309-10.934 4.191 2.422c1.449.836 3.137 1.059 4.75.625 1.613-.434 2.961-1.469 3.797-2.914l18.16-31.481h-5.551l-16.773 29.07c-.191.332-.504.57-.875.672-.375.097-.766.046-1.098-.145l-29.22-16.871c-.692-.399-.926-1.281-.532-1.973.004-.004 6.168-10.746 6.168-10.746l-5.543-.008-4.797 8.356c-1.718 2.98-.691 6.812 2.293 8.539l5.856 3.379-6.82 12.179c-.075.129-.161.211-.235.211 0 0 .039.008.078.012-.004 0-.203-.023-.203-.023l-8.48-.469c-.403-.024-.598-.289-.66-.402l-.036-.071-6.312-10.926 4.191-2.421c1.446-.832 2.481-2.18 2.914-3.793.145-.539.215-1.09.215-1.633 0-1.082-.281-2.153-.84-3.117 0 0-5.539-9.825-5.539-9.825l-3.461.016-1.558.879 6.379 11.312c.207.36.257.747.156 1.118-.098.375-.34.683-.668.875-.004 0-29.22 16.871-29.22 16.871-.336.191-.722.246-1.097.144-.371-.097-.684-.34-.875-.672-.004-.004-17.672-30.546-17.672-30.546l-5.578.019 19.08 32.938c.836 1.441 2.183 2.476 3.8 2.91 1.614.433 3.301.211 4.747-.625l5.851-3.379 7.141 11.996c.07.129.101.242.062.308l.098-.125-.172.227-4.645 7.109c-.218.34-.546.375-.679.375l-.074-.007h-12.622v-4.836c0-3.45-2.804-6.258-6.253-6.258h-64.62c-3.45 0-6.254 2.808-6.254 6.258v33.742c0 3.445 2.804 6.254 6.254 6.254h64.62c3.449 0 6.253-2.809 6.253-6.254v-6.762l13.957-.183c.149 0 .262.031.301.093 0 0-.015-.035-.031-.07 0 .004.082.187.082.187l3.832 7.579c.07.132.094.257.094.371 0 .187-.067.332-.11.402l-.042.066-6.309 10.926-4.191-2.418c-2.989-1.726-6.821-.699-8.547 2.289l-32.31 55.965c-.836 1.445-1.055 3.133-.625 4.746.434 1.614 1.469 2.965 2.914 3.801l29.22 16.867c1.445.836 3.133 1.059 4.75.625 1.613-.429 2.961-1.465 3.797-2.914l-4.168-2.402c-.196.332-.504.57-.875.672-.375.097-.766.047-1.098-.149l-29.22-16.867c-.336-.191-.574-.504-.675-.879-.098-.371-.047-.762.144-1.094 0 0 32.31-55.964 32.31-55.964.398-.692 1.281-.926 1.968-.532l29.22 16.875c.336.192.574.504.676.875.097.371.047.762-.149 1.094l4.168 2.41c.836-1.449 1.059-3.133.625-4.75-.429-1.613-1.468-2.961-2.914-3.797l-5.855-3.382 6.824-12.18c.074-.125.156-.207.23-.211 0 0-.039-.004-.078-.008.004 0 .207.024.207.024l8.481.468c.402.02.594.289.66.403l.035.066 6.309 10.93-4.188 2.422c-1.449.832-2.484 2.183-2.918 3.796-.433 1.614-.211 3.301.625 4.747l6.907 11.961 4.167-2.407-6.906-11.961c-.191-.332-.246-.722-.144-1.093h.004m-55.969-30.637c0 .793-.649 1.441-1.445 1.441h-64.62c-.796 0-1.445-.648-1.445-1.441v-33.742c0-.797.649-1.446 1.445-1.446h64.62c.796 0 1.445.649 1.445 1.446v33.742m56.41 10.07c-.504-1.086-2.07-2.965-4.73-3.105l-8.473-.465.281.031c-1.207-.215-3.637.094-5.086 2.582-.015.027-4.597 8.203-6.812 12.16l-10.836-6.258 6.281-10.882-.113.179c.687-.98 1.527-3.273.324-5.648l-3.832-7.57.113.261c-.422-1.152-1.902-3.109-4.781-3.113-.031 0-9.402.121-13.934.18v-12.516h12.563l-.211-.012c1.191.106 3.601-.308 5.06-2.539l4.64-7.105-.168.226c.789-.937 1.739-3.199.305-5.695-.016-.027-4.809-8.08-7.125-11.98l10.84-6.258 6.281 10.883-.098-.188c.508 1.086 2.071 2.965 4.731 3.106l8.473.468-.282-.031c1.207.211 3.637-.094 5.086-2.586.016-.027 4.598-8.203 6.813-12.16l10.84 6.258-6.286 10.883.118-.176c-.692.976-1.532 3.269-.329 5.644l3.833 7.574-.114-.261c.422 1.152 1.903 3.105 4.785 3.113.028 0 9.403-.121 13.934-.18v12.516h-12.566l.211.008c-1.192-.106-3.598.312-5.05 2.543l-4.645 7.105.168-.226c-.785.937-1.734 3.195-.305 5.695.016.023 4.809 8.08 7.129 11.98l-10.839 6.258-6.286-10.883.098.188"/><path d="m256.9 207.29l-20.394 11.449c-.36.207-.746.258-1.121.16-.371-.102-.684-.34-.875-.676l-14.743-25.531-4.168 2.402 14.743 25.535c1.722 2.989 5.558 4.02 8.547 2.293-.02.008 18.01-10.11 18.01-10.11v-5.523"/><path d="m160.93 176.62l23.527-11.899 37.16 22.86c0 0-9.89 13.367-20.719 6.953-10.828-6.418-17.378-10.16-17.378-10.16l-14.704 7.086-7.886-14.84"/><path d="m164.29 208.3l-.23-15.328 24.269-1.918 28.922 33.15c0 0-12.613 9.765-21.813-1.211-8.09-9.645-13.222-14.875-13.222-14.875l-15.801 1.625-2.125-1.438"/><path d="m158.39 206.16l20.05 11.363c0 0 2.137 1.203 2.27 3.609.137 2.407 2.676 32.75 2.676 32.75 0 0-15.641 2.676-18.05-13.1l-.938-12.703-14.03-8.153 8.02-13.769"/><path d="m49.96 118.46l84.1 47.46-19.25 34.493c0 0-1.739 6.01 3.875 8.957l-9.493 4.945 2.809 7.219 8.559 4.543c0 0 12.562 9.757 5.078 22.328l-32.35-17.11-18.847-42.777-24.465-13.769-.012-56.28"/></g></svg>
